packages/foundations/assets/icons/functional/images/transportation/ship_14.svg

<svg width="14" height="14" viewBox="0 0 14 14" fill="none" xmlns="http://www.w3.org/2000/svg">
<g clip-path="url(#clip0_2214_7253)">
<path fill-rule="evenodd" clip-rule="evenodd" d="M11.2017 10.7388C11.25 10.794 11.513 11.1999 11.8998 11.1999C12.2866 11.1999 12.6 11.5133 12.6 11.8999C12.6 12.2589 12.2987 12.6006 11.8973 12.5999C11.5139 12.5999 11.1065 12.4452 10.675 12.1358C10.2711 12.4404 9.86281 12.5928 9.45021 12.593C9.03762 12.5931 8.62922 12.441 8.22502 12.1365C7.81658 12.4408 7.40757 12.5953 6.998 12.5999C6.58842 12.6045 6.18076 12.4501 5.77502 12.1365C5.3669 12.4408 4.95856 12.5953 4.54999 12.5999C4.14142 12.6045 3.7331 12.4501 3.32502 12.1365C2.92304 12.4408 2.5147 12.5953 2.10002 12.5999C1.71343 12.5999 1.40002 12.2865 1.40002 11.8999C1.40002 11.5133 1.71343 11.1999 2.10002 11.1999C2.18372 11.1999 2.51893 11.0586 2.79786 10.7394C3.07679 10.4201 3.57326 10.4201 3.85219 10.7394C3.90022 10.7943 4.1912 11.2 4.54999 11.1999C4.90878 11.1998 5.20003 10.794 5.24823 10.7389C5.52709 10.4203 6.02286 10.4202 6.30176 10.7389C6.34999 10.794 6.65109 11.1999 7.00023 11.1999C7.34938 11.1999 7.65007 10.794 7.69832 10.7388C7.97709 10.4204 8.47252 10.4202 8.75147 10.7385C8.79984 10.7937 9.10112 11.1998 9.45021 11.1999C9.79931 11.2 10.1001 10.794 10.1483 10.7388C10.4272 10.4203 10.9229 10.4203 11.2017 10.7388ZM8.40002 1.3999C8.69446 1.3999 8.95427 1.58359 9.05553 1.85423L10.15 4.8999H11.9C12.296 4.8999 12.6132 5.2281 12.5996 5.62386C12.5463 7.18097 11.8649 8.64097 10.7251 9.62887C10.433 9.88208 9.99091 9.85051 9.73771 9.55837C9.4845 9.26623 9.51607 8.82414 9.80821 8.57093C10.4632 8.00321 10.8477 7.3576 11.1139 6.2999C8.13113 6.28575 5.12649 6.28575 2.10002 6.2999C1.74104 6.2999 1.40002 5.95889 1.40002 5.5999C1.40002 5.24092 1.67025 4.94505 2.01839 4.90461L8.70592 4.8999L7.87502 2.7999H2.10002C1.74104 2.7999 1.40002 2.45889 1.40002 2.0999C1.40002 1.74092 1.67025 1.44505 2.01839 1.40461L8.40002 1.3999ZM8.40002 6.9999C8.78662 6.9999 9.10002 7.3133 9.10002 7.6999C9.10002 8.0865 8.78662 8.3999 8.40002 8.3999C8.01342 8.3999 7.70002 8.0865 7.70002 7.6999C7.70002 7.3133 8.01342 6.9999 8.40002 6.9999ZM5.60002 6.9999C5.98662 6.9999 6.30002 7.3133 6.30002 7.6999C6.30002 8.0865 5.98662 8.3999 5.60002 8.3999C5.21342 8.3999 4.90002 8.0865 4.90002 7.6999C4.90002 7.3133 5.21342 6.9999 5.60002 6.9999ZM2.80002 6.9999C3.18662 6.9999 3.50002 7.3133 3.50002 7.6999C3.50002 8.0865 3.18662 8.3999 2.80002 8.3999C2.41343 8.3999 2.10002 8.0865 2.10002 7.6999C2.10002 7.3133 2.41343 6.9999 2.80002 6.9999Z" fill="#1A1C1F"/>
</g>
<defs>
<clipPath id="clip0_2214_7253">
<rect width="14" height="14" fill="white"/>
</clipPath>
</defs>
</svg>

<svg xmlns="http://www.w3.org/2000/svg" width="14" height="14" fill="none"><g clip-path="url(#a)"><path fill="#1A1C1F" fill-rule="evenodd" d="M11.202 10.739c.048.055.311.46.698.46a.7.7 0 0 1 .7.7.71.71 0 0 1-.703.7q-.574 0-1.222-.463-.606.457-1.225.457-.618 0-1.225-.457-.612.458-1.227.464t-1.223-.463q-.612.456-1.225.463t-1.225-.463q-.603.456-1.225.463a.7.7 0 0 1 0-1.4c.084 0 .419-.141.698-.46a.7.7 0 0 1 1.054 0c.048.054.34.46.698.46.359 0 .65-.406.698-.461a.7.7 0 0 1 1.054 0c.048.055.35.46.698.46.35 0 .65-.405.698-.46a.7.7 0 0 1 1.053 0c.049.055.35.46.7.46.348.001.65-.405.697-.46a.7.7 0 0 1 1.054 0M8.4 1.399a.7.7 0 0 1 .656.455L10.15 4.9h1.75a.7.7 0 0 1 .7.724c-.054 1.557-.735 3.017-1.875 4.005a.7.7 0 1 1-.917-1.058c.655-.568 1.04-1.213 1.306-2.271a957 957 0 0 0-9.014 0c-.359 0-.7-.341-.7-.7a.7.7 0 0 1 .618-.695L8.706 4.9l-.831-2.1H2.1c-.359 0-.7-.341-.7-.7a.7.7 0 0 1 .618-.695zm0 5.6a.7.7 0 1 1 0 1.4.7.7 0 0 1 0-1.4M5.6 7a.7.7 0 1 1 0 1.4.7.7 0 0 1 0-1.4M2.8 7a.7.7 0 1 1 0 1.4.7.7 0 0 1 0-1.4" clip-rule="evenodd"/></g><defs><clipPath id="a"><path fill="#fff" d="M0 0h14v14H0z"/></clipPath></defs></svg>
